X:180
T: Klage ueber Untreue
N: A0216
O: Europa, Mitteleuropa, Deutschland
N: 68 Lieder. Nuernberg bei Berg und Newber 1542 No. 57.
R: Romanze, Ballade, Lied
M: 4/2
L: 1/4
K: F
 |  |  | F6ED | C2F4E2
F3GA2F2 | G2A2B4 | A4z2
A2 | A2G2A2B2 | c4B2A2- | A2GFG2G2 | F8 | z2
A2A2G2 | F2E2D4 | C4z2
C2 | F2F2G2A2 | B2A3GF2 | G2A2B4 | A4z2
A2 | A2G2A2B2 | c4B2A2- | A2GFG4 | F8

